modules/feathericon/icons/speaker.svg

<?xml version="1.0" encoding="UTF-8"?>
<svg width="8px" height="14px" viewBox="0 0 8 14" version="1.1" xmlns="http://www.w3.org/2000/svg" xmlns:xlink="http://www.w3.org/1999/xlink">
    <!-- Generator: sketchtool 48.1 (47250) - http://www.bohemiancoding.com/sketch -->
    <title>speaker</title>
    <desc>Created with sketchtool.</desc>
    <defs></defs>
    <g id="devices" stroke="none" stroke-width="1" fill="none" fill-rule="evenodd">
        <g id="speaker" fill="#000000">
            <path d="M-5.72875081e-14,1 C-5.72875081e-14,1 -5.72875081e-14,-5.65269182e-14 1,-5.65269182e-14 C1,-5.65269182e-14 7,-5.72390447e-14 7,-5.65269182e-14 C8,-7.95987404e-14 8,1 8,1 L8,13 C8,13 8,14 7,14 C7,14 1,14 1,14 C-5.72875081e-14,14 -5.72875081e-14,13 -5.72875081e-14,13 L-5.72875081e-14,1 Z M4,8 C5.65685425,8 7,6.65685425 7,5 C7,3.34314575 5.65685425,2 4,2 C2.34314575,2 1,3.34314575 1,5 C1,6.65685425 2.34314575,8 4,8 Z M4,7 C5.1045695,7 6,6.1045695 6,5 C6,3.8954305 5.1045695,3 4,3 C2.8954305,3 2,3.8954305 2,5 C2,6.1045695 2.8954305,7 4,7 Z M4,12 C4.55228475,12 5,11.5522847 5,11 C5,10.4477153 4.55228475,10 4,10 C3.44771525,10 3,10.4477153 3,11 C3,11.5522847 3.44771525,12 4,12 Z" id="Shape"></path>
        </g>
    </g>
</svg>

<svg width="8" height="14" xmlns="http://www.w3.org/2000/svg"><path d="M0 1s0-1 1-1h6c1 0 1 1 1 1v12s0 1-1 1H1c-1 0-1-1-1-1V1zm4 7a3 3 0 1 0 0-6 3 3 0 0 0 0 6zm0-1a2 2 0 1 0 0-4 2 2 0 0 0 0 4zm0 5a1 1 0 1 0 0-2 1 1 0 0 0 0 2z" fill="#000" fill-rule="evenodd"/></svg>
